www/assets/icons/tty.svg

<svg width="24" height="24" viewBox="0 0 24 24" xmlns="http://www.w3.org/2000/svg" fill='currentColor'><path d="M13.9857 4.01416H15.9857V6.01416H13.9857V4.01416ZM12.9857 7.01416H14.9857V9.01416H12.9857V7.01416ZM10.9857 4.01416H12.9857V6.01416H10.9857V4.01416ZM17.9857 9.01416H15.9857V7.01416H17.9857V9.01416ZM18.9857 6.01416H16.9857V4.01416H18.9857V6.01416ZM20.9857 9.01416H18.9857V7.01416H20.9857V9.01416ZM21.9857 6.01416H19.9857V4.01416H21.9857V6.01416ZM14.6057 14.3942L12.0857 16.9142C9.5857 15.4842 7.5157 13.4142 6.0857 10.9142L8.6057 8.39416C8.8457 8.15416 8.9457 7.81416 8.8857 7.49416L8.1457 3.81416C8.0557 3.35416 7.6457 3.01416 7.1657 3.01416H3.0157C2.4557 3.01416 1.9857 3.48416 2.0157 4.04416C2.1857 6.93416 3.0357 9.64416 4.4157 12.0142C5.9957 14.7442 8.2657 17.0042 10.9857 18.5842C13.3557 19.9542 16.0657 20.8142 18.9557 20.9842C19.5157 21.0142 19.9857 20.5442 19.9857 19.9842V15.8342C19.9857 15.3542 19.6457 14.9442 19.1857 14.8542L15.5157 14.1242C15.1857 14.0542 14.8457 14.1542 14.6057 14.3942ZM13.9857 10.0142H15.9857V12.0142H13.9857V10.0142ZM10.9857 10.0142H12.9857V12.0142H10.9857V10.0142ZM18.9857 12.0142H16.9857V10.0142H18.9857V12.0142ZM21.9857 12.0142H19.9857V10.0142H21.9857V12.0142Z"/></svg>

<svg xmlns="http://www.w3.org/2000/svg" width="24" height="24" viewBox="0 0 24 24" fill='currentColor'><path d="M13.986 4.014h2v2h-2zm-1 3h2v2h-2zm-2-3h2v2h-2zm7 5h-2v-2h2zm1-3h-2v-2h2zm2 3h-2v-2h2zm1-3h-2v-2h2zm-7.38 8.38-2.52 2.52c-2.5-1.43-4.57-3.5-6-6l2.52-2.52c.24-.24.34-.58.28-.9l-.74-3.68c-.09-.46-.5-.8-.98-.8h-4.15c-.56 0-1.03.47-1 1.03.17 2.89 1.02 5.6 2.4 7.97 1.58 2.73 3.85 4.99 6.57 6.57 2.37 1.37 5.08 2.23 7.97 2.4.56.03 1.03-.44 1.03-1v-4.15c0-.48-.34-.89-.8-.98l-3.67-.73a.99.99 0 0 0-.91.27m-.62-4.38h2v2h-2zm-3 0h2v2h-2zm8 2h-2v-2h2zm3 0h-2v-2h2z"/></svg>
